images/zhuyin/13.svg

<svg width="50" height="50" viewBox="0 0 50 50" fill="none" xmlns="http://www.w3.org/2000/svg">
<path d="M28 14.4922C28.3438 14.4922 28.6875 14.7266 29.0312 15.1953C29.4062 15.7266 29.5938 16.1719 29.5938 16.5312C29.5938 16.7344 29.2656 17.0391 28.6094 17.4453C28.1875 17.7266 27.5234 18.3984 26.6172 19.4609C25.3359 20.9453 24.0312 22.3828 22.7031 23.7734C21.9844 24.5078 21.625 25.0703 21.625 25.4609C21.625 25.8047 21.9609 26.2188 22.6328 26.7031C25.7891 29.125 27.7266 30.7812 28.4453 31.6719C28.9609 32.3125 29.2188 33.0469 29.2188 33.875C29.2188 34.2031 29.1406 34.4688 28.9844 34.6719C28.8594 34.8281 28.7188 34.9062 28.5625 34.9062C28.1875 34.9062 27.8125 34.6562 27.4375 34.1562C26.4375 32.7188 25.25 31.2812 23.875 29.8438C22.625 28.4688 21.5078 27.4062 20.5234 26.6562C20.1328 26.4219 19.9375 25.9219 19.9375 25.1562C19.9375 24.9062 20.0938 24.6953 20.4062 24.5234C21.3438 23.8359 22.6562 22.3906 24.3438 20.1875C26.0312 17.9375 27.0625 16.2812 27.4375 15.2188C27.5625 14.7344 27.75 14.4922 28 14.4922Z" fill="#333333"/>
<path d="M29.0312 15.1953L29.4398 14.9069L29.4345 14.8996L29.0312 15.1953ZM28.6094 17.4453L28.3462 17.0202L28.339 17.0246L28.332 17.0293L28.6094 17.4453ZM26.6172 19.4609L26.9957 19.7876L26.9976 19.7854L26.6172 19.4609ZM22.7031 23.7734L23.0605 24.1232L23.0647 24.1188L22.7031 23.7734ZM22.6328 26.7031L22.9372 26.3064L22.9313 26.3019L22.9252 26.2975L22.6328 26.7031ZM28.4453 31.6719L28.8348 31.3584L28.8344 31.3579L28.4453 31.6719ZM28.9844 34.6719L29.3749 34.9843L29.3807 34.9767L28.9844 34.6719ZM27.4375 34.1562L27.027 34.4418L27.0321 34.4491L27.0375 34.4562L27.4375 34.1562ZM23.875 29.8438L23.5049 30.1802L23.5137 30.1894L23.875 29.8438ZM20.5234 26.6562L20.8265 26.2585L20.8044 26.2418L20.7807 26.2275L20.5234 26.6562ZM20.4062 24.5234L20.6472 24.9615L20.6757 24.9459L20.7019 24.9266L20.4062 24.5234ZM24.3438 20.1875L24.7407 20.4916L24.7437 20.4875L24.3438 20.1875ZM27.4375 15.2188L27.909 15.3852L27.9162 15.3647L27.9216 15.3437L27.4375 15.2188ZM28 14.9922C28.1004 14.9922 28.3142 15.063 28.628 15.491L29.4345 14.8996C29.0608 14.3902 28.5871 13.9922 28 13.9922V14.9922ZM28.6228 15.4837C28.9802 15.9901 29.0938 16.3297 29.0938 16.5312H30.0938C30.0938 16.0141 29.8323 15.4631 29.4397 14.907L28.6228 15.4837ZM29.0938 16.5312C29.0938 16.4495 29.125 16.4116 29.1123 16.4313C29.1018 16.4475 29.0721 16.4856 29.0074 16.5457C28.8781 16.6658 28.6635 16.8238 28.3462 17.0202L28.8726 17.8704C29.2115 17.6606 29.4891 17.4631 29.6879 17.2785C29.7872 17.1862 29.8807 17.0847 29.9522 16.974C30.0215 16.8667 30.0938 16.7145 30.0938 16.5312H29.0938ZM28.332 17.0293C27.8439 17.3547 27.138 18.0798 26.2368 19.1365L26.9976 19.7854C27.9089 18.717 28.5311 18.0984 28.8867 17.8613L28.332 17.0293ZM26.2387 19.1342C24.9628 20.6124 23.6638 22.0437 22.3415 23.4281L23.0647 24.1188C24.3987 22.722 25.7091 21.2782 26.9957 19.7876L26.2387 19.1342ZM22.3458 23.4237C21.9738 23.8038 21.6785 24.1556 21.4732 24.4769C21.2744 24.7881 21.125 25.1242 21.125 25.4609H22.125C22.125 25.4071 22.1553 25.2666 22.3159 25.0153C22.47 24.7741 22.7137 24.4774 23.0605 24.1232L22.3458 23.4237ZM21.125 25.4609C21.125 25.7957 21.2861 26.0947 21.4887 26.3443C21.6954 26.5991 21.9861 26.8533 22.3404 27.1087L22.9252 26.2975C22.6077 26.0686 22.3945 25.8736 22.2652 25.7143C22.1318 25.5498 22.125 25.4699 22.125 25.4609H21.125ZM22.3284 27.0998C25.498 29.5319 27.3824 31.151 28.0562 31.9859L28.8344 31.3579C28.0707 30.4115 26.0801 28.7181 22.9372 26.3064L22.3284 27.0998ZM28.0558 31.9854C28.4994 32.5365 28.7188 33.16 28.7188 33.875H29.7188C29.7188 32.9337 29.4225 32.0885 28.8348 31.3584L28.0558 31.9854ZM28.7188 33.875C28.7188 34.1241 28.6602 34.2732 28.5881 34.367L29.3807 34.9767C29.621 34.6643 29.7188 34.2822 29.7188 33.875H28.7188ZM28.5939 34.3595C28.5625 34.3988 28.5438 34.4098 28.5423 34.4106C28.5419 34.4108 28.5444 34.4094 28.5495 34.4081C28.5547 34.4067 28.5594 34.4062 28.5625 34.4062V35.4062C28.9116 35.4062 29.1839 35.2229 29.3748 34.9842L28.5939 34.3595ZM28.5625 34.4062C28.4258 34.4062 28.1804 34.3135 27.8375 33.8563L27.0375 34.4562C27.4446 34.999 27.9492 35.4062 28.5625 35.4062V34.4062ZM27.848 33.8707C26.8313 32.4093 25.6269 30.9519 24.2363 29.4981L23.5137 30.1894C24.8731 31.6106 26.0437 33.0282 27.027 34.4418L27.848 33.8707ZM24.245 29.5074C22.9836 28.1199 21.8437 27.0336 20.8265 26.2585L20.2204 27.054C21.1719 27.7789 22.2664 28.8176 23.505 30.1801L24.245 29.5074ZM20.7807 26.2275C20.6223 26.1325 20.4375 25.869 20.4375 25.1562H19.4375C19.4375 25.9747 19.6433 26.7113 20.2662 27.085L20.7807 26.2275ZM20.4375 25.1562C20.4375 25.144 20.4387 25.1321 20.4565 25.1082C20.4793 25.0774 20.5327 25.0245 20.6472 24.9615L20.1653 24.0853C19.7693 24.3031 19.4375 24.6509 19.4375 25.1562H20.4375ZM20.7019 24.9266C21.703 24.1925 23.0532 22.6947 24.7407 20.4915L23.9468 19.8835C22.2593 22.0866 20.9845 23.4794 20.1106 24.1202L20.7019 24.9266ZM24.7437 20.4875C26.4296 18.2397 27.5055 16.5283 27.909 15.3852L26.966 15.0523C26.6195 16.0342 25.6329 17.6353 23.9438 19.8875L24.7437 20.4875ZM27.9216 15.3437C27.9766 15.1308 28.0332 15.0239 28.0672 14.9799C28.0816 14.9613 28.0829 14.9659 28.0664 14.975C28.047 14.9858 28.0222 14.9922 28 14.9922V13.9922C27.6854 13.9922 27.4413 14.1549 27.2765 14.3677C27.123 14.566 27.0234 14.8224 26.9534 15.0938L27.9216 15.3437Z" fill="#333333"/>
</svg>

<svg xmlns="http://www.w3.org/2000/svg" width="50" height="50" fill="none"><path fill="#333" d="M28 14.492c.344 0 .688.235 1.031.703.375.532.563.977.563 1.336 0 .203-.328.508-.985.914-.422.282-1.086.953-1.992 2.016a115.742 115.742 0 0 1-3.914 4.312c-.719.735-1.078 1.297-1.078 1.688 0 .344.336.758 1.008 1.242 3.156 2.422 5.094 4.078 5.812 4.969.516.64.774 1.375.774 2.203 0 .328-.078.594-.235.797-.125.156-.265.234-.422.234-.375 0-.75-.25-1.125-.75-1-1.437-2.187-2.875-3.562-4.312-1.25-1.375-2.367-2.438-3.352-3.188-.39-.234-.585-.734-.585-1.5 0-.25.156-.46.468-.633.938-.687 2.25-2.132 3.938-4.335 1.687-2.25 2.718-3.907 3.093-4.97.125-.484.313-.726.563-.726Z"/><path fill="#333" d="m29.031 15.195.409-.288-.006-.007-.403.295Zm-.422 2.25-.263-.425-.007.005-.007.004.277.416Zm-1.992 2.016.379.327.002-.003-.38-.324Zm-3.914 4.312.358.35.004-.004-.362-.346Zm-.07 2.93.304-.397-.006-.004-.006-.005-.292.406Zm5.812 4.969.39-.314-.39.314Zm.54 3 .39.312.006-.007-.397-.305Zm-1.547-.516-.411.286.005.007.006.007.4-.3Zm-3.563-4.312-.37.336.009.01.361-.346Zm-3.352-3.188.303-.397-.022-.017-.023-.015-.258.43Zm-.117-2.133.241.439.029-.016.026-.02-.296-.403Zm3.938-4.335.397.304.003-.005-.4-.3Zm3.093-4.97.472.167.007-.02.006-.021-.485-.125Zm.563-.226c.1 0 .314.071.628.499l.806-.591c-.373-.51-.847-.908-1.434-.908v1Zm.623.492c.357.506.47.846.47 1.047h1c0-.517-.26-1.068-.653-1.624l-.817.577Zm.47 1.047c0-.081.032-.12.02-.1a.697.697 0 0 1-.106.115c-.129.12-.344.278-.66.474l.526.85c.338-.21.616-.407.815-.591.1-.093.193-.194.264-.305a.82.82 0 0 0 .142-.443h-1Zm-.761.498c-.488.326-1.194 1.05-2.095 2.108l.76.648c.912-1.068 1.534-1.687 1.89-1.924l-.555-.832Zm-2.093 2.105a115.095 115.095 0 0 1-3.898 4.294l.724.69a116.218 116.218 0 0 0 3.93-4.33l-.756-.654Zm-3.893 4.29c-.372.38-.668.732-.873 1.053-.199.311-.348.647-.348.984h1c0-.054.03-.194.19-.446.155-.24.399-.538.745-.892l-.714-.7Zm-1.221 2.037c0 .335.161.634.364.883.206.255.497.51.851.765l.585-.812c-.317-.228-.53-.423-.66-.583-.133-.164-.14-.244-.14-.253h-1Zm1.203 1.639c3.17 2.432 5.054 4.051 5.728 4.886l.778-.628c-.763-.947-2.754-2.64-5.897-5.052l-.609.794Zm5.728 4.885c.443.551.663 1.175.663 1.89h1c0-.941-.297-1.786-.884-2.517l-.78.627Zm.663 1.89c0 .25-.059.398-.13.492l.792.61c.24-.313.338-.695.338-1.102h-1Zm-.125.484a.21.21 0 0 1-.052.052s.002-.002.007-.003a.053.053 0 0 1 .014-.002v1c.349 0 .62-.183.812-.422l-.781-.625Zm-.032.047c-.136 0-.382-.093-.725-.55l-.8.6c.408.543.912.95 1.526.95v-1Zm-.714-.535c-1.017-1.462-2.221-2.92-3.612-4.373l-.722.691c1.36 1.422 2.53 2.84 3.513 4.253l.821-.571Zm-3.603-4.364c-1.261-1.387-2.401-2.473-3.419-3.248l-.606.795c.952.725 2.046 1.764 3.285 3.126l.74-.673Zm-3.464-3.28c-.159-.095-.343-.358-.343-1.07h-1c0 .818.205 1.554.828 1.928l.515-.858Zm-.343-1.07c0-.013 0-.025.018-.049a.59.59 0 0 1 .191-.146l-.482-.877c-.396.218-.727.566-.727 1.071h1Zm.264-.23c1.001-.735 2.351-2.232 4.039-4.436l-.794-.607c-1.688 2.203-2.962 3.595-3.836 4.236l.59.807Zm4.042-4.44c1.686-2.247 2.762-3.959 3.165-5.102l-.943-.333c-.347.982-1.333 2.583-3.022 4.835l.8.6Zm3.178-5.143c.055-.213.111-.32.145-.364.015-.019.016-.014 0-.005a.143.143 0 0 1-.067.017v-1a.906.906 0 0 0-.724.376c-.153.198-.253.454-.323.726l.969.25Z"/></svg>
